X:3424
T:Corbleu Marion
R:Chanson
O:France
B:Le livre des Chansons (Henri Davenson) n°66
Z:<anamnese@caramail.com> -- http://anamnese.fr.st
M:3/4
L:1/8
Q:1/4=90
K:G
E | B B G G A A | B>B B<B G A | B2 B<B G A |\
M:3/8
B z E |\
M:3/4
B B G G A A |G2-F2 E2 ||
W:"Qu'allais-tu faire à la fontaine,
W:Corbleu, Marion (2x)
W:Qu'allais-tu faire à la fontaine ?
W:
W:J'étais allé quérir de l'eau
W:Avec qui donc que tu parlais ?
W:Avec la fille de notre voisine.
W:Les femmes ne portent point d'épée. /.../


